X:151
%%topmargin 3cm
T:The Caledonian Hunt
C:Sir A. Don
O:Scotland
B:Keith Norman MacDonald : "The Skye collection of the best reels & strathspeys extant" : 1887
Z:Ralph Palmer
R:Strathspey
M:C
L:1/8
K:D
A | F>A dA B<d A>F | GF BE-E>G | .F.A .d.A BdAF | GG FD-D>G | F>A dA B<dA>F |
GF BE-E>G | F>A d>A B/2c/2d A>G | F>A D>g f>dd || f | (d/2e/2f/2g/2) a>f b>ga>f | (d/2e/2f/2g/2) a<f g<e e>f |
(d/2e/2f/2g/2) a>f b<ga<f | A<aTa>g fd d>f | (d/2e/2f/2g/2) a>f b>ga>f | (d/2e/2f/2g/2) a>f gee>g | f>d e<f Td>B A<F | A>B d>e f>dd |]
